X: 1134
T: Charlie Mulvihill's
M: 4/4
L: 1/8
R: hornpipe
K: A Major
|: EG |
AGAB cBAG | FcdB GEFG | AGAc efec | BAGA B2 cd |
efed cBAG | F2 dB G2 EG | AGAf ecAc | B2 GB A2 :|
|: ce |
acgc fced | cAce afga | bBaB gBfB | e^def gefg |
acgc fced | cAce a2 A2 | dcdf ec A2 | BEGB A2 :|
